assets/logos/linkedin.svg

<svg width="80" height="80" viewBox="0 0 80 80" fill="none" xmlns="http://www.w3.org/2000/svg">
<path fill-rule="evenodd" clip-rule="evenodd" d="M15.1111 72H64.8889C68.8162 72 72 68.8162 72 64.8889V15.1111C72 11.1838 68.8162 8 64.8889 8H15.1111C11.1838 8 8 11.1838 8 15.1111V64.8889C8 68.8162 11.1838 72 15.1111 72Z" fill="#007EBB"/>
<path fill-rule="evenodd" clip-rule="evenodd" d="M63.1111 63.1111H53.6139V46.9352C53.6139 42.5003 51.9287 40.0218 48.4184 40.0218C44.5997 40.0218 42.6045 42.601 42.6045 46.9352V63.1111H33.4519V32.2963H42.6045V36.4471C42.6045 36.4471 45.3565 31.3549 51.8956 31.3549C58.4317 31.3549 63.1111 35.3462 63.1111 43.6011V63.1111ZM22.5328 28.2614C19.4152 28.2614 16.8889 25.7153 16.8889 22.5751C16.8889 19.435 19.4152 16.8889 22.5328 16.8889C25.6504 16.8889 28.1751 19.435 28.1751 22.5751C28.1751 25.7153 25.6504 28.2614 22.5328 28.2614ZM17.8067 63.1111H27.3506V32.2963H17.8067V63.1111Z" fill="white"/>
</svg>

<svg xmlns="http://www.w3.org/2000/svg" width="80" height="80" fill="none" viewBox="0 0 80 80"><path fill="#007ebb" fill-rule="evenodd" d="M15.111 72H64.89A7.11 7.11 0 0 0 72 64.889V15.11A7.11 7.11 0 0 0 64.889 8H15.11A7.11 7.11 0 0 0 8 15.111V64.89A7.11 7.11 0 0 0 15.111 72" clip-rule="evenodd"/><path fill="#fff" fill-rule="evenodd" d="M63.111 63.111h-9.497V46.935c0-4.435-1.685-6.913-5.196-6.913-3.818 0-5.813 2.579-5.813 6.913v16.176h-9.153V32.296h9.153v4.151s2.752-5.092 9.29-5.092S63.112 35.346 63.112 43.6zm-40.578-34.85c-3.118 0-5.644-2.546-5.644-5.686s2.526-5.686 5.644-5.686c3.117 0 5.642 2.546 5.642 5.686s-2.525 5.686-5.642 5.686m-4.726 34.85h9.544V32.296h-9.544z" clip-rule="evenodd"/></svg>
